teeny/solid/donut-chart.svg

<svg width="15" height="15" viewBox="0 0 15 15" fill="none" xmlns="http://www.w3.org/2000/svg">
<path d="M0 7.49996C0 3.52583 3.09098 0.27365 7 0.0163574V4.0354C5.30385 4.27801 4 5.73672 4 7.49996C4 9.43295 5.567 11 7.5 11C8.28618 11 9.01181 10.7407 9.5961 10.3031L12.438 13.1451C11.1188 14.3 9.39113 15 7.5 15C3.35786 15 0 11.6421 0 7.49996Z" fill="black"/>
<path d="M13.1451 12.438C14.3001 11.1187 15 9.39107 15 7.49996C15 6.46644 14.7909 5.48175 14.4128 4.58586L10.7552 6.21147C10.9132 6.61024 11 7.04496 11 7.49996C11 8.28611 10.7408 9.01174 10.3032 9.59602L13.1451 12.438Z" fill="black"/>
<path d="M8 4.0354V0.0163574C10.5416 0.183645 12.7373 1.61699 13.9626 3.69166L10.2541 5.33986C9.71063 4.64791 8.91203 4.16585 8 4.0354Z" fill="black"/>
</svg>

<svg viewBox="0 0 15 15" xmlns="http://www.w3.org/2000/svg"><g><path d="M0 7.49C0 3.51 3.09.26 7 0v4.01c-1.7.24-3 1.7-3 3.46 0 1.93 1.56 3.5 3.5 3.5 .78 0 1.51-.26 2.09-.7l2.84 2.84c-1.32 1.15-3.05 1.85-4.94 1.85 -4.15 0-7.5-3.36-7.5-7.51Z"/><path d="M13.14 12.43c1.15-1.32 1.85-3.05 1.85-4.94 0-1.04-.21-2.02-.59-2.92l-3.66 1.62c.15.39.24.83.24 1.28 0 .78-.26 1.51-.7 2.09l2.84 2.84Z"/><path d="M8 4.03V.01c2.54.16 4.73 1.6 5.96 3.67l-3.71 1.64c-.55-.7-1.35-1.18-2.26-1.31Z"/></g></svg>
